X:1
T:Goderich, 11.8.11.88
T:W. H. W. Darley, before 1895
T:Goderich, 11.8.11.88
T:Public Domain
C:W. H. W. Darley, before 1895
Z:Public Domain
%%score ( 1 2 ) ( 3 4 )
L:1/8
M:3/4
K:Bb
V:1 treble 
V:2 treble 
V:3 bass 
V:4 bass 
V:1
 [DF]2 | [DB]2 [B,B]2 [CA]2 | [DB]4 [B,F]>[B,F] | [B,G]2 [B,F]2 [A,E]2 | ([A,E]2 [B,D]2) [CF]2 | %5
 [B,B]2 [DB]2 [DB]2 | [=EB]2 [EG]2 [Ec]2 | ([=EB]2 [FA]2) [FA]2 | [Fd]2 [^Fd]2 [FA]2 | %9
 [GB]2 [DB]2 [DB]2 | [=Ec]2 [Ec]2 [EG]2 | [FA]4 [Fc]2 | [Fd]2 [Ec]2 [DB]2 | [FA]2 [FB]2 [EG]2 | %14
 [DF]4 [DF]2 | [FB]2 [EA]2 [DB]2 | [Cc]2 [DB]2 (CD) | [DB]4 |] %18
V:2
 x2 | x6 | x6 | x6 | x6 | x6 | x6 | x6 | x6 | x6 | x6 | x6 | x6 | x6 | x6 | x6 | x4 A2 | x4 |] %18
V:3
 [B,,F,]2 | [B,,F,]2 [D,F,]2 F,2 | [B,,F,]4 [D,F,]>[D,F,] | E,2 [D,F,]2 [C,F,]2 | %4
 [B,,F,]4 [A,,F,]2 | [G,,G,]2 [G,,G,]2 [G,,G,]2 | [C,G,]2 [C,C]2 [C,C]2 | [F,C]4 [F,A,]2 | %8
 [D,A,]2 [D,A,]2 [D,C]2 | [G,B,]2 [G,B,]2 G,2 | [C,G,]2 [C,G,]2 [C,C]2 | [F,C]4 [F,A,]2 | %12
 [B,,B,]2 [B,,B,]2 [B,,B,]2 | [F,C]2 [D,B,]2 [E,B,]2 | B,4 [B,,B,]2 | [D,B,]2 [F,C]2 [G,B,]2 | %16
 [E,G,]2 F,2 [F,,F,]2 | [B,,F,]4 |] %18
V:4
 x2 | x4 F,2 | x6 | E,2 x4 | x6 | x6 | x6 | x6 | x6 | x4 G,2 | x6 | x6 | x6 | x6 | B,4 x2 | x6 | %16
 x2 F,2 x2 | x4 |] %18

